X:1
T:Audite, stirps Levitica
T:Jan Tollius
T:Audite, stirps Levitica
C:Jan Tollius
%%score [ 1 2 3 ]
L:1/8
Q:1/4=90
M:4/4
K:Eb
V:1 treble nm="Soprano" snm="S"
V:2 treble-8 nm="Tenor" snm="T"
V:3 bass nm="Bass" snm="B"
V:1
 z c c2 =A2 z c | c2 =A2 z4 | G3 G G2 F2 | =E4 c4- | c4 c4- | c2 F2 B3 B | B2 c2 G4 | z4 z2 G2- | %8
w: Au- di- te, Au-|di- te,|stirps Le- vi- ti-|ca, Au-|* di-|* te, stirps Le-|vi- ti- ca,|ger-|
 GG A2 GF =E2 | F2 z F G2 A2 | B2 cA G2 Cc | d2 ef g2 ed- | d/c/ c2 =B c4 | e3 d/c/ d3 c/B/ | %14
w: * men sa- cer- do- ta-|le, pro- pa- go|san- cti- fi- ca- ta, pro-|pa- go san- cti- fi- ca-|* * * * ta,|du- * * * * *|
 c4 B2 B2- | BAGF E2 E2 | D4 G4 | G6 FE | D2 C2 EF GF/G/ | A4 G4 | c3 B/A/ B3 A/G/ | A4 G2 G2- | %22
w: * ces et|_ _ _ _ _ rec-|to- res|gre- * *|* gis Chri- * * * *|* sti.|du- * * * * *|* ces et|
 GFED C2 c2 | c=B/A/ B2 c2 C2- | CDEF G4 | G2 A3 G G2- | G2 F2 G4- | G8 || z8 | z4 c2 c>c | %30
w: _ _ _ _ _ rec-|to- * * * res gre-||gis Chri- * *|* * sti.|_||Ut cu- ram|
 =BB c/_B/A/G/ A2 G2 | z A2 F G2 GA- | A/A/B A2 ABAB | c8 | z8 | c2 c>c =BB c/_B/A/G/ | %36
w: ha- be- a- * * * * tis|or- pha- no- rum, pe-|* re- gri- no- rum et pau- pe-|rum,||Ut cu- ram ha- be- a- * * *|
 A2 G2 z A2 F | G2 GA>AB A2 | ABAB c4- | c4 z2 z G | c2 cc c>c cc | cf =e2 ff e2 | fF c2 AF c2 | %43
w: * tis or- pha-|no- rum, pe- re- gri- no-|rum et pau- pe- rum,|_ Ip-|sos que ad pran- di- um ve-|strum vo- ca- te, vo- ca-|te, vo- ca- te, vo- ca-|
 AF A2 G4- | G4 z2 z G | c2 cc c>c cc | cf =e2 ff e2 | f8 || G>G GG A2 G2 | z d/d/ e>e d c2 =B | %50
w: te, vo- ca- te,|_ Ip-|sos que ad pran- di- um ve-|strum vo- ca- te, vo- ca-|te.|Sa- cer- do- tes De- i,|be- ne- di- ci- te Do- mi-|
 c2 z2 z4 | z d/d/ e>e d c2 =B | c2 G>G GG A2 | G2 z d/d/ e>e dc- | c=B c2 z4 | z2 z d/d/ e>e dc- | %56
w: num:|be- ne- di- ci- te Do- mi-|num: Sa- cer- do- tes De-|i, be- ne- di- ci- te Do-|* mi- num:|be- ne- di- ci- te Do-|
 c=B c2 c3 B/A/ | G2 B2 A3 A | G4 z G/A/ BA/G/ | FE z E/F/ GF/E/ D2 | C4 C3 D | EFGG F3 F | %62
w: * mi- num: Ser- * *|* vi Do- mi-|ni, hym- num di- ci- te|De- o, hym- num di- ci- te De-|o, Ser- *|* * * vi Do- mi-|
 =E4 z4 | z2 z c/d/ ed/c/ =B2 | c8 |] %65
w: ni,|hym- num di- ci- te De-|o.|
V:2
 z2 z c c2 =A2 | z c c2 =A2 B2- | BB ed/c/ BG =A>B | c6 z c | c2 =A2 z c c2 | =A2 B3 B ed/c/ | %6
w: Au- di- te,|Au- di- te, stirps|_ Le- vi- * * * ti- ca, _|_ Au-|di- te, Au- di-|te, stirps Le- vi- * *|
 BG =A>B c4 | B3 B c2 BA | G2 F2 G3 G | A2 GF =E2 FF | G2 A2 B2 cA | G2 Cc d2 ef | ge d2 c4 | %13
w: * ti- ca, _ _|ger- men sa- cer- do-|ta- le, ger- men|sa- cer- do- ta- le, pro-|pa- go san- cti- fi-|ca- ta, pro- pa- go san-|cti- fi- ca- ta,|
 z2 g3 f/e/ f2- | fe/d/ e4 d2 | B3 B cdef | g2 f2 e3 d | c4 B4 | z2 c4 =B2 | c4 =B4 | %20
w: du- * * *|* * * * ces|et rec- to- * * *|* res gre- gis|Chri- sti.|gre- gis|Chri- sti.|
 z2 e3 d/c/ d2- | dc/B/ c4 B2 | G3 G ABcd | e2 d2 c3 B | A4 G4 | z2 f4 =e2 | f4 =e4- | e8 || %28
w: du- * * *|* * * * ces|et rec- to- * * *|* res gre- gis|Chri- sti.|gre- gis|Chri- sti.|_|
 g2 g>g ff g/f/e/d/ | e2 d2 z e2 c | d2 ce>ef =e2 | fccd e2 z c | f6 f2 | =e4 g2 g>g | %34
w: Ut cu- ram ha- be- a- * * *|* tis or- pha-|no- rum, pe- re- gri- no-|rum et pau- pe- rum, et|pau- pe-|rum, Ut cu- ram|
 ff g/f/e/d/ e2 d2 | z e2 c d2 ce- | e/e/f =e2 fccd | e2 z c f2 ff | f>f ff ec g2 | ec g2 ec g2 | %40
w: ha- be- a- * * * * tis|or- pha- no- rum, pe-|* re- gri- no- rum et pau- pe-|rum, Ip- sos que ad|pran- di- um ve- strum vo- ca-|te, vo- ca- te, vo- ca-|
 c2 z e a2 ag | a>a gg aa g2 | f2 z c f2 ff | f>f ff ec g2 | ec g2 ec g2 | c2 z e a2 ag | %46
w: te, Ip- sos que ad|pran- di- um ve- strum vo- ca-|te, Ip- sos que ad|pran- di- um ve- strum vo- ca-|te, vo- ca- te, vo- ca-|te, Ip- sos que ad|
 a>a gg aa g2 | f8 || z4 c>c cc | =B2 c2 z2 z d/d/ | e>e d c2 =B c2 | z g/g/ g>g fc/d/ ed | %52
w: pran- di- um ve- strum vo- ca-|te.|Sa- cer- do- tes|De- i, be- ne-|di- ci- te Do- mi- num:|be- ne- di- ci- te Do- * * mi-|
 c4 z2 c>c | cc =B2 c2 z2 | z d/d/ e>e d c2 =B | c2 z g/g/ g>g fc/d/ | ed c2 c3 d | efgg f3 f | %58
w: num: Sa- cer-|do- tes De- i,|be- ne- di- ci- te Do- mi-|num: be- ne- di- ci- te Do- *|* mi- num: Ser- *|* * * vi Do- mi-|
 =e4 z e/f/ gf/_e/ | de z c/d/ ed/c/ =B2 | c4 z2 c2- | cB/A/ GE F3 F | c4 z G/A/ BA/G/ | %63
w: ni, hym- num di- ci- te|De- o, hym- num di- ci- te De-|o, Ser-|* * * * vi Do- mi-|ni, hym- num di- ci- te|
 FE z e/f/ gf/e/ d2 | c8 |] %65
w: De- o, hym- num di- ci- te De-|o.|
V:3
 F,8 | F,6 B,,2 | E,3 E, E,2 F,2 | C,4 z C C2 | =A,2 z C C2 A,2 | z4 G,3 G, | G,2 F,2 =E,4 | %7
w: Au-|di- te,|stirps Le- vi- ti-|ca, Au- di-|te, Au- di- te,|stirps Le-|vi- ti- ca,|
 G,3 G, A,2 G,F, | E,2 F,2 C,3 C, | F,2 E,F, C,2 F,,2 | z2 z F, G,2 A,2 | B,2 CA, G,4- | G,4 C,4 | %13
w: ger- men sa- cer- do-|ta- le, ger- men|sa- cer- do- ta- le,|pro- pa- go|san- cti- fi- ca-|* ta,|
 C3 B,/A,/ B,3 A,/G,/ | A,4 G,2 G,2- | G,F,E,D, C,2 C2 | C=B,/A,/ B,2 C2 C,2- | C,D,E,F, G,4 | %18
w: du- * * * * *|* ces et|_ _ _ _ _ rec-|to- * * * res gre-||
 G,2 A,2- A,G, G,2- | G,2 F,2 G,4 | A,3 G,/F,/ G,3 F,/E,/ | F,4 E,2 E,2- | E,D,C,B,, A,,2 A,,2 | %23
w: gis Chri- * * *|* * sti.|du- * * * * *|* ces et|_ _ _ _ _ rec-|
 G,,4 C,4 | C,6 B,,A,, | G,,2 F,,2 A,,B,, C,B,,/C,/ | _D,4 C,4- | C,8 || z4 z2 C2 | %29
w: to- res|gre- * *|* gis Chri- * * * *|* sti.|_|Ut|
 C>C =B,B, C/_B,/A,/G,/ A,2 | G,2 z A,2 F, C2 | F,A,>A,B, E,2 E,F, | _D,6 D,2 | C,8 | %34
w: cu- ram ha- be- a- * * * *|tis or- pha- no-|rum, pe- re- gri- no- rum et|pau- pe-|rum,|
 z2 C2 C>C =B,B, | C/B,/A,/G,/ A,2 G,2 z A,- | A,F, C2 F,A,>A,B, | E,2 E,F, _D,4- | %38
w: Ut cu- ram ha- be-|a- * * * * tis or-|* pha- no- rum, pe- re- gri-|no- rum et pau-|
 D,2 _D,2 C,2 z C, | C2 CC C>C CC | A,F, C2 A,F, C2 | A,F, C2 A,F, C2 | F,8- | F,4 z2 z C, | %44
w: * pe- rum, Ip-|sos que ad pran- di- um ve-|strum vo- ca- te, vo- ca-|te, vo- ca- te, vo- ca-|te,|_ Ip-|
 C2 CC C>C CC | A,F, C2 A,F, C2 | A,F, C2 A,F, C2 | F,8 || z8 | z G,/G,/ C>C F,2 G,>G, | %50
w: sos que ad pran- di- um ve-|strum vo- ca- te, vo- ca-|te, vo- ca- te, vo- ca-|te.||be- ne- di- ci- te Do- mi-|
 C,2 G,>G, G,G, A,2 | G,G,/G,/ C>C F,2 G,>G, | C,4 z4 | z2 z G,/G,/ C>C F,2 | %54
w: num: Sa- cer- do- tes De-|i, be- ne- di- ci- te Do- mi-|num:|be- ne- di- ci- te|
 G,>G, C,2 G,>G, G,G, | A,2 G,G,/G,/ C>C F,2 | G,>G, C,2 z2 C2- | CB,/A,/ G,E, F,3 F, | C4 z4 | %59
w: Do- mi- num: Sa- cer- do- tes|De- i, be- ne- di- ci- te|Do- mi- num: Ser-|* * * * vi Do- mi-|ni,|
 z2 z C,/F,/ E,B,,/C,/ G,,2 | C,4 F,3 E,/D,/ | C,2 E,2 _D,3 D, | C,4 z E,/F,/ G,F,/E,/ | %63
w: hym- num di- ci- te De-|o, Ser- * *|* vi Do- mi-|ni, hym- num di- ci- te|
 D,E, z C,/F,/ E,F,/C,/ G,2 | C,8 |] %65
w: De- o, hym- num di- ci- te De-|o.|

